X: 1
T: Rendalsringlender 1
R:
O:
B:
D: Dalakopa
N: Partly based on 1988 transcription by Rolf & Susan Wolfsberg
Z: 1998 by John Chambers <jc@trillian.mit.edu>
M: 4/4
L: 1/8
K: Dm
|: "A7"a>b ag e2 e2 | e>f ge "Dm"f2 d2 | "Gdim"e>f ge "Dm"f2 df |1,3 "E7"e2 e^g "A"a4 :|2,4 "A7"e2 ^c2 "Dm"d4 :|
P:
K:D
|: "D"A>B AG F2 F2 | "A7"A>c ec "D"d2 d2 | A>B AG F2 FD |1,3 "A7"E2 EC "D"D2 DF :|2,4 "A7"E2 EC "D"D4 :|
